X:1
T:Orlando di Lasso 1532 - 1594
T:Quare tristis es anima mea
%%score [ 1 2 3 4 ]
L:1/8
Q:1/4=240
M:4/4
K:C
V:1 treble nm="Discantus"
V:2 treble nm="Altus"
V:3 treble nm="Tenor"
V:4 treble nm="Bassus"
V:1
 x8 ||[K:F] z16 | z8 G8 x4 | B4 B8 B4 x2 | A4 f2"^(  )" e2 d2 c2 B2 AG x2 | F8 G4 B8 | _e8 d4 x4 | %7
w: ||Qua-|re tri- stis|es, qua * * * * * *|* re tri-|* stis|
w: |||||||
 d8 c8 x4 | d12 c4 x2 | B6 AG B4 A6 | GF G4 A8 z4 x6 | A4 f8 d4 x8 | d4 B4 c4 F4 x8 | f8 e2 d2 x4 | %14
w: es a-|* ni-|ma * * * me-|* * * a,|& qua- re|con- tur- bas me,|con- * *|
w: |||||||
 f2 e2 e2 dc d8 | g4 f6 e2 d6 x2 | cB c4 F6 G2 A4 | G2 F2 B8 z4 x2 | d8 B4 G4 x2 | g6 ^fe f4 g4 | %20
w: |tur- bas * *|* * * me, * *||spe- ra in|De * * * o,|
w: ||||||
 G6 G2 G4 x4 | B12 G4 x4 | z4 d4 c4 f8 x4 | d4 g8 f8 | z4 d6 d2 d4 x4 | B8 A4 d8 | ^c4 x14 | %27
w: quo- ni- am|ad- huc|con- fi- te-|bor il- li,|quo- ni- am|ad- huc con-|fi-|
w: |||||||
 d4 f4 F8 x6 | F8 z4 d8 | c4 f8 e4 | f6 e2 d6 c2 x8 | B6 AG A4 B6 x2 | AG F8 z16 | z8 f8 | %34
w: te- bor il-|li, con-|fi- te- bor|il- * * *|li, * * * *||sa-|
w: |||||||
 e4 d8 c4 | F4 B6 c2 d4 | G8 ^F8 | G8 z4 B8 | A4 G4 B4 A4 x4 | A4 A8 x4 | F8 z8 | z4 d8 c4 | %42
w: lu- ta- re|vul- tus * *|me- *|i, *||||sa- lu-|
w: |||* sa-|lu- ta- re vul-|tus me-|i,||
 B4 d4 c8 | B8 d6 cB | c8 d6 cB | c4 f4 d4 e4 | f4 B4 z4 A4 | F4 G4 A8 x4 | d8 z4 c4 | %49
w: ta- re vul-|* tus me *|* i * *|* & De- us|me- us, *||* &|
w: ||||* * &|De- us me-|us, *|
 A4 B4 c4 A4 x4 | f8 d4 e4 | f2 F2 B8 A6 | G2 G6 ^FE F4"^-" x16 |] x16 |] %54
w: De- us me- us,|||||
w: |& De- us|me * * *|||
V:2
 x8 ||[K:F] z16 | G8 B8 x4 | G8 F8 x2 | F4 B,8 D4 x2 | z4 B8 G4 x4 | G12 F4 | D8 A8 x4 | %8
w: ||Qua- re|tri- stis|es, qua- re,|qua- re|tri- stis|es a-|
w: ||||||||
 B12 A4 x2 | G4 F2 E2 F8 x2 | D8 F8 x8 | E8 z4 D4 x8 | B8 G6 A2 x8 | B4 A4 F4 G4 | C4 c6 =BA B4 | %15
w: * ni-|ma * * *|me- *|a, &|qua- re *|* con- tur- bas|me, * * * *|
w: ||||||* con- * * *|
 c4 A4 D8 x4 | z8 A8 x2 | F4 D4 G8 x2 | A8 D8 x2 | E8 A4 A4 | B8 B8 | G6 G2 G4 B8 | %22
w: |spe-|ra in De-|* o,|||quo- ni- am ad-|
w: tur- bas me,||||spe- ra in|De- o,||
 A4 A6 A2 A4 x8 | B8 G4 B4 x4 | A4 G2 F2 G2 A2 B4 x4 | A4 G4 G4 z4 x4 | A6 A2 A4 x6 | B8 A8 x6 | %28
w: huc, * * *|* * con-|fi- te * * * *|bor il- li,|quo- ni- am|ad- huc,|
w: * quo- ni- am|ad- huc, *|||||
 z4 D6 D2 D4 x4 | F4 E4 D6 D2 | G4 C4 F16 | F6 E2 D2 C2 B,4 x4 | z8 z4 B8 x6 | A4 x12 | %34
w: quo- ni- am|ad- huc con- fi-|te- bor il-|li, * * * *|sa-|lu-|
w: ||||||
 G4 B4 A6 GF | G4 G4 F8 | D4 G8 F4 | _E4 C4 z4 D8 | D4 G8 F8 | B4 G8 F4 | E4 E4 x8 | %41
w: ta- re vul- * *|* tus me-|i, sa- lu-|ta- re vul-|tus me- *|i, sa- lu-|ta- re|
w: |||||||
 A2 G2 F2 E2 D4 C4 | G6 FG A8 | D8 z4 F4 | D4 E4 F8 | E8 D8 | z4 D4 =B,4 C4 | D8 D4 F8 | %48
w: vul * * * * tus|me- * * *|i, &|De- us me-|* us,||* * &|
w: |||||& De- us|me- us, *|
 D6 C2 c4 B4 | A4 G8 z8 | z4 c4 B4 A4 | G6 A2 A4 F4 x2 | G4 F4 D16 x6 |]"^-" x16 |] %54
w: De- * * us|me- us,||* * * &|De- us me-||
w: ||& De- us|me- * us, *|||
V:3
 x8 ||[K:F][K:treble-8] z8 d8 | _e12 e8 | d4 x8- x6 | x2 z8 d8 | _e4 e8 B4 x4 | x8- x8 | x8 f12 | %8
w: |Qua-|re tri-|stis es,||||a-|
w: ||||qua-|re tri- stis|es,\_\_||
 f4 f6 e2 d6 | c2 B2 c2 d2 e2 f4 e2 x2 | d2 c4 d6 ^c=B c4 x6 | A8 z4 G4 x8 | _e8 d16 | %13
w: ni- ma * *||* * me- * * *|a, &|qua- re|
w: |||||
 z4 a4 f4 g4 | c4 c4 f4 f4 | e8 z4 d8 | B4 G4 g6 ^fe x2 | ^f4 x8- x6 | x2 z4 d6 d2 d4 | _e8 x8 | %20
w: con- tur- bas|me, * * *|* spe-|ra in De- * *|* o,|quo- ni- am|ad-|
w: |* con- tur- bas|me, *|||||
 d8 z8 | f8 f4 d8 | f4 B2 G2 B2 c2 d12 | G4 z4 d6 d2 x4 | d4 f8 e8 | z4 d6 d2 d4 x4 | %26
w: huc,|con- fi- te-|bor il * * * *|li, quo- ni-|am ad- huc,|quo- ni- am|
w: ||||||
 B4 A6 GF G4 x2 | A12 B4 x6 | c2 B2 A2 G2 A4 B4 x4 | d8 c8 | z4 _e8 d4 x8 | c4 _e4 d2 B2 c2 d2 x4 | %32
w: ad- huc, * * *|con- fi-|te * * * * bor|il- li,|sa- lu-|ta- re vul * * *|
w: ||||||
 _e4 d4 z4 d4 x10 | c4 B8 A4 | B6 A2 G2 A2 B2 A2 | c4 G4 A8 | B8 _e8 | d4 c4 _e4 d4 x4 | %38
w: * tus, *|||* * me-|i, sa-|lu- ta- re vul-|
w: * * sa-|lu- ta- re|vul- * * * * *|* tus *|||
 c4 d6 ^c=B c4 x4 | d8 f8 | e4 d4 f6 ef | g4 f4 a8 | g8 d8 | z4 a4 f4 g4 | a8 g8 | f4 f4 B4 c4 | %46
w: tus me- * * *|i *||||& De- us|me- *|us, * * *|
w: |* sa-|lu- ta- re * *|* vul- tus|me- i,|||* & De- us|
 d6 e2 f4 e4 | z4 f4 d4 e4 x4 | f8 e8 | d8 z8 x4 | z4 B4 G4 A4 | B8 A8 x2 |"^-" x16 x14 |] x16 |] %54
w: |& De- us|me- *|us,|||||
w: me- * * us,||||& De- us|me- *|||
V:4
 x8 ||[K:F][K:bass] G,8 B,8 | z16 x4 | G,8 B,8 x2 | z8 G,8 x2 | B,8 z8 x4 | _E,12 B,,4 | %7
w: |Qua- re,||qua- re|qua-|re|tri- stis|
w: |||||||
 B,,8 z8 x4 | B,12 F,4 x2 | G,2 A,2 B,2 C2 D6 C2 x2 | B,8 A,16 | D,8 z16 | z4 D,4 B,8 x8 | %13
w: es|a- ni-|ma * * * * *|* me-|a,|& qua-|
w: ||||||
 A,8 z4 G,4 | E,4 F,4 B,,4 B,4 | G,4 A,4 D,8 x4 | z16 x2 | D8 B,4 G,4 x2 | C8 D8 x2 | G,8 z4 x4- | %20
w: re con-|tur- bas me, *|||spe- ra in|De- *|o, quo-|
w: |* * * con-|tur- bas me,|||||
 x2 G,2 G,4 _E,8 | D,8 z4 D,6 x2 | D,2 D,4 _E,8 D,8 x2 | B,6 A,2 G,4 ^F,4 x4 | G,4 G,4 D8 x4 | %25
w: ni- am ad-|huc, *||con- * * fi-|te- bor il-|
w: |* quo-|ni- am ad- huc,|||
 A,8 x12 | z8 z4 D,6 | D,2 D,4 B,,8 A,,8 | D,8 C,4 F,2 E,2 x4 | D,2 C,2 B,,4 B,8 | F,8 G,8 x8 | %31
w: li,|quo-|ni- am ad- huc|con- fi- te *|* * * bor|il- li,|
w: ||||||
 B,8 A,4 G,8 | F,4 x22 | C4 G,4 D4 D,4 | z16 | z4 _E,8 D,4 | C,4 _E,4 D,8 | G,8 _E,8 x4 | %38
w: sa- lu- ta-|re|vul- tus me- i,|||||
w: ||||sa- lu-|ta- re vul-|* tus|
 F,8 G,8 x4 | A,16 | z4 B,8 A,4 | G,4 B,4 A,8 | (3G,6 A,2 B,4 F,8 | G,8 z4 B,4 | G,4 A,4 B,6 A,G, | %45
w: ||sa- lu-|ta- re vul-|tus * * me-|i, &|De- us me- * *|
w: * me-|i,||||||
 F,4 D,4 z8 | %46
w: * us,|
w: |
"^Copyright © 2014 by the Choral Public Domain Library (http://www.cpdl.org).\nEdition may be freely distributed, duplicated, performed, or recorded\nRevision 1.0, 2014-01-27 by Gerd Eichler" B,8 G,4 A,4 | %47
w: |
w: & De- us|
 B,8 A,8 x4 | G,4 D4 =B,4 C4 | D8 A,8 x4 | z4 D4 =B,4 C4 | D8 D4 D,4 x2 | B,,6 C,2 D,8 x14 |] %53
w: |* & De- us|me- us,||* * &|De- us me-|
w: me- *|us, * * *||& De- us|me- us, *||
"^-" x16 |] %54
w: |
w: |

